X: 74
T: Piano Sonata no. 23 in F minor, Piu allegro
C: Ludwig van Beethoven
%%abc-version 2.0
%%abcx-abcm2ps-target-version 5.9.1 (29 Sep 2008)
%%abc-creator hum2abc beta
%%abcx-conversion-date 2021/01/11 11:42:14
%%abc-edited-by Craig Stuart Sapp
%%abc-edited-by Craig Stuart Sapp
%%abcx-initial-encoding-date 2004/07/01/
%%gracespace 0 6 6
%%humdrum-veritas 554114239
%%humdrum-veritas-data 3053578230
%%linebreak <none>
%%barnumbers 0
L: 1/8
M: 12/8
Q: "Pi\`u allegro" 3/8=96
%%staves {1 2}
V: 1 clef=treble
V: 2 clef=bass
K: Ab
[V:1] C2-C/A,/ [I:setbarnb 1]| 
[V:2] C,,2-C,,/A,,,/ | 
[V:1] F,6-F,3A,2-A,/C/ | 
[V:2] F,,,6-F,,,3A,,,2-A,,,/C,,/ | 
[V:1] F3A2-A/c/f3F3 | 
[V:2] F,,3A,,2-A,,/C,/F,3A,3 | 
[V:1] c3-c2=d2< {/c}!trill!d2-d>c=e/d/ | 
[V:2] [=E,6G,6C6][F,6A,6=B,6] | 
[V:1] c2zz2zz2z_D2-D/B,/ | 
[V:2] [=E,2G,2C2]zz2zz2z_D,,2-D,,/B,,,/ | 
[V:1] _G,6-G,3B,2-B,/D/ | 
[V:2] _G,,,6-G,,,3B,,,2-B,,,/D,,/ | 
[V:1] _G3B2-B/d/_g3G3 | 
[V:2] _G,,3B,,2-B,,/D,/_G,3B,3 | 
[V:1] d3-d2e2< {/d}e2-e>df/e/ | 
[V:2] [F,6A,6D6][_G,6=A,6C6] | 
[V:1] d2zz2zz6 | 
[V:2] [F,2_A,2D2]zz2zz6[K:clef=treble] | 
[V:1] c3-c2=d2< {/c}d2-d>c=e/d/ | 
[V:2] [=E6G6][F6A6=B6] | 
[V:1] c2zz2zz6 | 
[V:2] [=E2G2]z[K:clef=bass] .D,,.D,,.D,,.C,,2zz2z[K:clef=treble] | 
[V:1] =e3-e2f2<f2-f>eg/f/ | 
[V:2] [G6_B6_d6][A6B6d6] | 
[V:1] =e2zz2zz2z [eg][eg][eg] | 
[V:2] [G2B2d2]z[K:clef=bass] .D,,.D,,.D,,.C,,2zz2z | 
[V:1] [g2b2]zz2zz2z [gb][gb][gb] | 
[V:2] z2z .D,,.D,,.D,,.C,,2zz2z | 
[V:1] =e'/b/g'/e'/b'/g'/ e'/g'/b/e'/g/b/ =e/g/B/e/G/B/ =E/G/B,/E/G,/B,/ | 
[V:2] z12 | 
[V:1] x6x2>[D,2A,2D2] z z | 
[V:2] =E,/G,/B,,/E,/ zz2E,/G,/ B, z zx3 & z2G,,,/B,,,/ =E,,/G,,/B,,/D,/ zz2z [F,,,F,,] z z | 
[V:1] [=E,6G,6C6]-!fermata![E,3G,3C3]C2-C/A,/ | 
[V:2] [=E,,6C,6]-!fermata![E,,3C,3]C,,2-C,,/A,,,/ | 
[V:1] F,[F,2A,2C2F2][A,2C2F2A2][C2F2A2c2][F2A2c2f2][A2c2f2a2][cfac'] | 
[V:2] F,,, z [F,,,A,,,C,,F,,]- [F,,,A,,,C,,F,,][F,,,2A,,,2C,,2F,,2][F,,,2A,,,2C,,2F,,2][F,,,A,,,C,,F,,]- [F,,,A,,,C,,F,,][F,,,2C,,2F,,2] | 
[V:1] [f6a6c'6f'6]-[f3a3c'3f'3]A,2-A,/C/ | 
[V:2] [F,,,6A,,,6C,,6F,,6]-[F,,,3A,,,3C,,3F,,3]A,,,2-A,,,/C,,/ | 
[V:1] F3A2-A/c/f3F3 | 
[V:2] F,,3A,,2-A,,/C,/F,3F,,3 | 
[V:1] [=E,G,C][G,2=E2][C2E2G2][E2G2c2][G2c2=e2][c2e2g2][egc'] | 
[V:2] z2[=E,,G,,C,]- [E,,G,,C,][E,,2G,,2C,2][E,,2G,,2C,2][E,,G,,C,]- [E,,G,,C,][E,,2G,,2C,2][K:clef=treble] | 
[V:1] z6d3-d>c=e/d/ & c3-c2=d=B6 | 
[V:2] [=E6G6][F6A6][K:clef=bass] | 
[V:1] [=E,G,C][G,2C2=E2][C2E2G2][E2G2c2][G2c2=e2][c2e2g2][egc'] | 
[V:2] z2[=E,,G,,C,]- [E,,G,,C,][E,,2G,,2C,2][E,,2G,,2C,2][E,,G,,C,]- [E,,G,,C,][E,,2G,,2C,2][K:clef=treble] | 
[V:1] c3-c2d2< {/c}d2-d2c/d/ | 
[V:2] [=E6G6][_E6G6]- | 
[V:1] [g3b3]z2zz6 | 
[V:2] [EG]ee eee eee eee | 
[V:1] [a3_c'3]z2zz6 | 
[V:2] z ee [A_c]ee eee eee | 
[V:1] [a12_c'12_f'12] | 
[V:2] z ee [A_c]ee [Ac]ee [Ac]ee | 
[V:1] [g2b2e'2]zz2zz2z[g2b2]-[g/b/][g/b/] | 
[V:2] [GB]EE EEE EEE EEE | 
[V:1] [a2_c'2][gb]z2[GB]z2[G,B,] z z3/ [g/b/] | 
[V:2] EEE EEE EEE [B,D]EE | 
[V:1] [b2d'2][a_c']z2[A_c]z2[A,_C] z z3/ [a/c'/] | 
[V:2] EEE EEE EEE [A,_C]EE | 
[V:1] [a12_c'12_f'12] | 
[V:2] z EE [A,_C]EE [A,C]EE [A,C]EE[K:clef=bass] | 
[V:1] [g2b2e'2]zz2z[_G6=A6e6] | 
[V:2] z EE [G,B,]EE z EE [_G,=A,]EE | 
[V:1] [F2A2=d2]zz2z2<[=E2=G2_d2]z2z | 
[V:2] z EE [F,A,]EE z EE [=E,=G,]EE | 
[V:1] [E3G3d3]z2zz6 | 
[V:2] z E,E, E,E,E, E,E,E, E,E,E, | 
[V:1] [G,3B,3D3]z2zz6 | 
[V:2] z E,,E,, E,,E,,E,, E,,E,,E,, E,,E,,E,, | 
[V:1] z4>z4z[K:clef=bass][C,2C2]-[C,/C/][E,/E/][K:clef=treble] | 
[V:2] A,,,[C,,E,,A,,]A,,, [C,,E,,A,,]A,,,[C,,E,,A,,] A,,,[C,,E,,A,,]A,,, [C,,E,,A,,]A,,,[C,,E,,A,,] | 
[V:1] [A,3A3][C2c2]-[C/c/][A,/A/][G,3G3][B,2B2]-[B,/B/][G,/G/] | 
[V:2] A,,,[C,,E,,A,,]A,,, [C,,E,,A,,]A,,,[C,,E,,A,,] B,,,[D,,E,,B,,]B,,, [D,,E,,B,,]B,,,[D,,E,,B,,] | 
[V:1] [A,3A3][K:clef=bass][E,4E4]>[F,4F4]-[F,/F/][D,/D/] | 
[V:2] C,,[E,,A,,C,]C,, [E,,A,,C,]C,,[E,,A,,C,] C,,[E,,A,,C,]C,, A,,D,,A,, | 
[V:1] [C,3C3][E,2E2]-[E,/E/][C,/C/][B,,3B,3][E,2E2]-[E,/E/][D,/D/] | 
[V:2] E,,A,,E,, A,,E,,A,, E,,G,,E,, G,,E,,G,, | 
[V:1] C3E4>[K:clef=treble][C4c4]-[C/c/][E/e/] | 
[V:2] A,,[C,E,A,]A,, [C,E,A,]A,,[C,E,A,] A,,[C,E,A,]A,, [C,E,A,]A,,[C,E,A,] | 
[V:1] [A3a3][c2c'2]-[c/c'/][A/a/][G3g3][B2b2]-[B/b/][G/g/] | 
[V:2] A,,[C,E,A,]A,, [C,E,A,]A,,[C,E,A,] B,,[D,E,B,]B,, [D,E,B,]B,,[D,E,B,] | 
[V:1] [A3a3][E6e6]-[E3e3] | 
[V:2] [C,12E,12A,12C12] | 
[V:1] [_F3_f3][D6d6]-[D3d3] | 
[V:2] A,3__B,6-B,3 & [D,12_F,12] | 
[V:1] _c6-c3B2A | 
[V:2] [E,12A,12_C12] | 
[V:1] {/=A}B12 | 
[V:2] [E,12G,12D12] | 
[V:1] {/_f}e12 | 
[V:2] z12 | 
[V:1] {/_f'}e'12 | 
[V:2] z12 | 
[V:1] _f'e'd' _c'ba g_g_f ed_c | 
[V:2] z12 | 
[V:1] BA=G _G_FE D_CB,[K:clef=bass] A,=G,_G, | 
[V:2] z12 | 
[V:1] _F,E,D, _C,B,,A,, =G,,_G,,_F,,z2z | 
[V:2] z4>z4z E,,D,,_C,, | 
[V:1] z12 | 
[V:2] B,,,_C,,D,, E,,_F,,E,, D,,C,,B,,, E,,=D,,E,, | 
[V:1] A,/E,/_C,/E,/A,/E,/ _C/E,/B,/E,/A,/E,/ A,/E,/C,/E,/A,/E,/ C/E,/B,/E,/A,/E,/[K:clef=treble] | 
[V:2] A,,,/E,,/A,,/E,,/A,,,/E,,/ A,,,/E,,/A,,,/E,,/A,,,/E,,/ A,,,/E,,/A,,/E,,/A,,,/E,,/ A,,,/E,,/A,,,/E,,/A,,,/E,,/ | 
[V:1] _F/_C/A,/C/F/C/ A/C/_G/C/F/C/ F/C/A,/C/F/C/ A/C/G/C/F/C/ | 
[V:2] A,,,/_F,,/A,,/F,,/A,,,/F,,/ A,,,/F,,/A,,,/F,,/A,,,/F,,/ A,,,/F,,/A,,/F,,/A,,,/F,,/ A,,,/F,,/A,,,/F,,/A,,,/F,,/ | 
[V:1] d/_f/d/f/d/f/ d/f/d/f/d/f/ d/f/d/f/d/f/ d/f/B/d/G/B/ | 
[V:2] [__B,,,6__B,,6]-[B,,,2B,,2]>.[_B,,,2_B,,2].D,,._F,, | 
[V:1] _F/G/D/F/B,/D/ A,/B,/D/B,/A,/B,/ z/ A,/D/B,/A,/D/ z/ G,/D/B,/G,/D/ | 
[V:2] .G,,.B,,.D, ._F,.F,.F,2<F,2E,3 | 
[V:1] A/E/_C/E/A/E/ _c/E/B/E/A/E/ A/E/C/E/A/E/ c/E/B/E/A/E/ | 
[V:2] A,,/E,/A,/E,/A,,/E,/ A,,/E,/A,,/E,/A,,/E,/ A,,/E,/A,/E,/A,,/E,/ A,,/E,/A,,/E,/A,,/E,/ | 
[V:1] _f/_c/A/c/f/c/ a/c/_g/c/f/c/ f/c/A/c/f/c/ a/c/g/c/f/c/ | 
[V:2] A,,/_F,/A,/F,/A,,/F,/ A,,/F,/A,,/F,/A,,/F,/ A,,/F,/A,/F,/A,,/F,/ A,,/F,/A,,/F,/A,,/F,/ | 
[V:1] d'/_f'/d'/f'/d'/f'/ d'/f'/d'/f'/d'/f'/ d'/f'/d'/f'/d'/f'/ d'/f'/d'/f'/d'/f'/ | 
[V:2] [__B,,6__B,6]-[B,,2B,2]>.[_B,,2_B,2].[D,D].[_F,_F][K:clef=treble] | 
[V:1] d'/_f'/b/d'/a/b/ a/b/d'/b/a/b/ z/ a/d'/b/a/d'/ z/ g/d'/b/g/d'/ | 
[V:2] .[G,G].[B,B].[Dd] .[_F_f].[Ff].[F2f2]<[F2f2][E3e3] | 
[V:1] z/ _f/d'/b/f/d'/ z/ e/d'/b/e/d'/ z/ a/d'/b/a/d'/ z/ g/d'/b/g/d'/ | 
[V:2] A3G3_f3e3 | 
[V:1] z z/ _c'/=d'/f'/ a'/f'/d'/_c''/b'/a'/ g'/b'/a'/g'/_f'/e'/ _d'/f'/e'/d'/c'/b/ | 
[V:2] =d/=f/-[f2a2]-[f3a3]e/g/-g2-g3 & =d3-d3e6 | 
[V:1] z/ a/_c'/e'/a'/a< z a'/a/a'< z a'/a/a'< z g'/g/g'/ | 
[V:2] [A3_c3][d3_f3][c3e3][B3d3e3] | 
[V:1] z/ a/_c'/e'/a'/a< z a/A/a< z a/A/a< z g/G/g/ | 
[V:2] [A3_c3][D3_F3][_C3E3][B,3D3E3] | 
[V:1] z/ a/_c'/e'/a'/a< z a'/a/a'< z a'/a/a'< z g'/g/g'/ | 
[V:2] [A,3_C3][K:clef=bass][D,3_F,3][_C,3E,3][B,,3D,3E,3] | 
[V:1] a'/e'/_c'/e'/a'/e'/ c'/e'/a'/e'/c'/e'/ a'/e'/c'/e'/a'/e'/ a'/e'/a'/e'/a'/e'/ | 
[V:2] A,,6E,,3_C,,3 | 
[V:1] a'6-a'3[K:clef=bass]=B,2-B,/^G,/ | 
[V:2] A,,,6-A,,,3=B,,2-B,,/^G,,/ | 
[V:1] ^D,6-D,3=B,2-B,/^G,/ | 
[V:2] ^D,,6-D,,3=B,,2-B,,/^G,,/ | 
[V:1] =E,6-E,3^G,2-G,/=B,/[K:clef=treble] | 
[V:2] =E,,6-E,,3^G,,2-G,,/=B,,/ | 
[V:1] =E3^G2-G/=B/=e3E3 | 
[V:2] =E,3^G,2-G,/=B,/=E3E,3 | 
[V:1] =B3-B2^c2< {/B}c2-c>B^d/c/ | 
[V:2] [^D,6^F,6=B,6][=E,6=G,6^A,6] | 
[V:1] =B2zz2zz6 | 
[V:2] [^D,2^F,2=B,2]zz2zz6[K:clef=treble] | 
[V:1]  [K:C] z6g3-g>fa/g/ & ^f3-f2^g^e6 | 
[V:2]  [K:C] [A6^c6][B6d6] | 
[V:1] ^f2zz2zz6 | 
[V:2] [A2^c2]zz2zz6[K:clef=bass] | 
[V:1] E3-E2^F2<F2-F>E^G/F/ & x6^D6 | 
[V:2] [^G,6B,6][A,6=C6] | 
[V:1] E3[A,4^C4A4]>^F4-F/^G/ & x9[A,3C3] | 
[V:2] [^G,3B,3]^F,,6A,,3 | 
[V:1] [^G,6B,6E6][^F,6A,6^D6] | 
[V:2] B,,6B,,,6[K:clef=treble] | 
[V:1] z6f3-f>e^g/f/ & e3-e2^f^d6 | 
[V:2] [^G6B6][A6=c6] | 
[V:1] z3z4>^f4-f/^g/ & e3[A6^c6a6][A3c3] | 
[V:2] [^G3B3][K:clef=bass][^F,6^F6]A,3 | 
[V:1] [^G4B4e4]>[^F4A4^d4]zz2z | 
[V:2] B,4>B,,4zB,,2-B,,/=G,,/ | 
[V:1] B/=G/B/G/B/G/ B/G/B/G/B/G/ B/G/B/G/B/G/ B/G/B/G/B/G/ | 
[V:2] E,,6-E,,3G,,2-G,,/B,,/ | 
[V:1] B/G/B/G/B/G/ B/G/B/G/B/G/ B/G/B/G/B/G/ B/G/B/G/B/G/ | 
[V:2] E,3G,2-G,/B,/E3E3[K:clef=treble] | 
[V:1] z4>z4zB2-B/d/ | 
[V:2] (5:4:20F//G//B//G//F// D//F//G//F//D//[K:clef=bass] B,//D//F//D//B,// G,//B,//D//B,//G,// | 
[V:1] g3b2-b/d'/[g3g'3][g3g'3] | 
[V:2] (5:4:10F,//G,//B,//G,//F,// D,//F,//G,//F,//D,// B,,/D,/F,/D,/B,,/G,,/ F,,/G,,/B,,/G,,/F,,/D,,/ | 
[V:1] (5:4:20[g//g'//]_e'//g'//e'//c'// g//c'//e'//c'//g// _e//g//c'//g//e// c//e//g//e//c// | 
[V:2] C,,6-C,,3_E,,2-E,,/G,,/ | 
[V:1] (5:4:20G//c//_e//c//G// _E//G//c//G//E// E//G//c//G//E// E//G//c//G//E// | 
[V:2] C,3_E,2-E,/G,/C3C3 | 
[V:1] z4>z4zG2-G/_B/ | 
[V:2] (5:4:20_D//_E//G//E//D// _B,//D//E//D//B,// G,//B,//D//B,//G,// _E,//G,//B,//G,//E,// | 
[V:1] _e3g2-g/_b/[e3_e'3][e3e'3] | 
[V:2] (5:4:10_D,//_E,//G,//E,//D,// _B,,//D,//E,//D,//B,,// G,,/B,,/D,/B,,/G,,/_E,,/ _D,,/E,,/G,,/E,,/D,,/_B,,,/ | 
[V:1] (5:4:20_e'//_a'//c''//a'//e'// c'//e'//a'//e'//c'// _a//c'//e'//c'//a// _e//a//c'//a//e// | 
[V:2] _A,,,6-A,,,3C,,2-C,,/_E,,/ | 
[V:1] (5:4:20c//_e//_a//e//c// _A//c//e//c//A// _E//A//c//A//E// C//E//A//E//C// | 
[V:2] _A,,3C,2-C,/_E,/_A,3A,3 | 
[V:1] _G6-G3c2-c/_e/ | 
[V:2] (5:4:20=A,//C//_E//C//A,// _G,//A,//C//A,//G,// _E,//G,//A,//G,//E,// C,//E,//G,//E,//C,// | 
[V:1]  [K:Ab] _g3c'2-c'/e'/_g'3g'3 | 
[V:2]  [K:Ab] (5:4:10=A,,//C,//E,//C,//A,,// _G,,//A,,//C,//A,,//G,,// E,,/G,,/A,,/G,,/E,,/C,,/ =A,,,/C,,/E,,/G,,/E,,/C,,/ | 
[V:1] _g'2>-g'2g'/e'/c'/_g/g'2>-g'2g/e/c/_G/ | 
[V:2] A,,,/C,,/E,,/_G,,/E,,/C,,/ =A,,,/C,,/E,,/G,,/E,,/C,,/ _A,,,/C,,/E,,/G,,/E,,/C,,/ =A,,,/C,,/E,,/G,,/E,,/C,,/ | 
[V:1] _g2>-g2 _G/E/C/_G,/ GG/E/C/G,/ GG/E/C/G,/ | 
[V:2] A,,,/C,,/E,,/_G,,/E,,/C,,/ =A,,,/C,,/E,,/G,,/E,,/C,,/ _A,,,/C,,/E,,/G,,/E,,/C,,/ =A,,,/C,,/E,,/G,,/E,,/C,,/ | 
[V:1] _G2zz2zz6 | 
[V:2] [A,,,A,,] A,A, A,A,A, A,A,A, A,A,A, | 
[V:1] [C3E3]z2z2<[c2e2]z2z | 
[V:2] z A,A, A,A,A, _G,A,A, A,A,A, | 
[V:1] [D3F3]z2z2<[d2f2]z2z | 
[V:2] z A,A, A,A,A, F,A,A, A,A,A, | 
[V:1] [D12F12B12] | 
[V:2] z A,A, [D,F,]A,A, [D,F,]A,A, [D,F,]A,A, | 
[V:1] [C2E2A2]zz2zz2z[C2E2]-[C/E/][C/E/] | 
[V:2] [C,E,]A,A, A,A,A, A,A,A, A,A,A, | 
[V:1] [D2F2][CE] z z [ce] z z [c'e'] z z3/ [C/E/] | 
[V:2] A,A,A, A,A,A, A,A,A, [E,_G,]A,A, | 
[V:1] [E2_G2][DF] z z [df] z z [d'f'] z z3/ [D/F/] | 
[V:2] A,A,A, A,A,A, A,A,A, [D,F,]A,A, | 
[V:1] [D12F12B12] | 
[V:2] z A,A, [D,F,]A,A, [D,F,]A,A, [D,F,]A,A, | 
[V:1] [C2E2A2]zz2z[D6_F6__B6] | 
[V:2] z A,A, [C,E,]A,A, z A,A, [D,_F,]A,A, | 
[V:1] [C2E2A2]zz2z[d6_f6__b6] | 
[V:2] z A,A, [C,E,]A,A, z A,A, [D,_F,]A,A, | 
[V:1] [c3e3a3]z2z2<[_C2=D2A2]z2z | 
[V:2] z A,A, [C,E,]A,A, z A,A, [_C,=D,]A,A, | 
[V:1] [B,3D3=G3]z2z2<[=A,2C2_G2]z2z | 
[V:2] z A,A, [B,,D,]A,A, z A,A, [=A,,C,]A,A, | 
[V:1] [A,2C2_G2]zz2z efe ded | 
[V:2] z A,,=G,, A,,B,,A,,A,,6 & zA,,2A,,2A,,- _G,,A,,G,, F,,G,,F,, | 
[V:1] c_g zz2z gag fgf | 
[V:2] E,,A,,2A,,2A,,-A,,6 & E,,A,,=G,, A,,B,,A,, E,,F,,E,, D,,E,,D,, | 
[V:1] ee' zz2z e'f'e' d'e'd' | 
[V:2] C,,A,,2A,,2A,,A,,6 & C,,A,,G,, A,,B,,A,,- C,,D,,C,, B,,,C,,B,,, | 
[V:1] c'd'c' bc'b aba _gag | 
[V:2] A,,,G,,,A,,, B,,,A,,,B,,, _C,,B,,,C,, =C,,=B,,,C,, | 
[V:1] f2zz2zz2z[F,2F2]-[F,/F/][A,/A/] | 
[V:2] D,,[F,,A,,D,]D,, [F,,A,,D,]D,,[F,,A,,D,] D,,[F,,A,,D,]D,, [F,,A,,D,]D,,[F,,A,,D,] | 
[V:1] [D3d3][F2f2]-[F/f/][D/d/][C3c3][E2e2]-[E/e/][C/c/] | 
[V:2] D,,[F,,A,,D,]D,, [F,,A,,D,]D,,[F,,A,,D,] E,,[_G,,A,,E,]E,, [G,,A,,E,]E,,[G,,A,,E,] | 
[V:1] [D3d3][A,3A3]-[A,3A3][B,2B2-]B/_G/ | 
[V:2] F,,[A,,D,F,]F,, [A,,D,F,]F,,[A,,D,F,] F,,[A,,D,F,]F,, [D,E,_G,]_G,,[D,E,G,] | 
[V:1] F3A2-A/F/E3_G2-G/E/ | 
[V:2] A,,[D,F,A,]A,, [D,F,A,]A,,[D,F,A,] A,,[C,E,A,]A,, A,A,,[C,E,A,] | 
[V:1] C3F3-F3[D2d2]-[D/d/][F/f/] | 
[V:2] =A,,[C,F,=A,]A,, [C,F,A,]A,,[C,F,A,] A,,[C,F,A,]A,, [D,F,B,]B,,[D,F,B,] | 
[V:1] [B3b3][d2d'2]-[d/d'/][B/b/][=A3=a3][c2c'2]-[c/c'/][A/a/] | 
[V:2] B,,[D,F,B,]B,, [D,F,B,]B,,[D,F,B,] C,[E,F,C]C, [E,F,C]C,[E,F,C] | 
[V:1] [B3b3][F3f3]-[F3f3]_g2-g/e/ & x9_G3 | 
[V:2] D,[F,B,D]D, [F,B,D]D,[F,B,D] D,[F,B,D]D, [_G,B,E]E,[G,B,E] | 
[V:1] d3f2-f/d/c3e2-e/c/ | 
[V:2] F,[B,DF]F, [B,DF]F,[B,DF] F,[=A,CE]F, [A,CE]F,[A,CE][K:clef=treble] | 
[V:1] B3d4>[B4b4]-[B/b/][d/d'/] | 
[V:2] _G,[B,D_G]G, [B,DG]G,[B,DG] G,[B,DG]G, [B,DG]G,[B,DG] | 
[V:1] [_g3_g'3][b2b'2]-[b/b'/][g/g'/][f3f'3][a2a'2-][a/a'/][f/f'/] | 
[V:2] _G,[B,D_G]G, [B,DG]G,[B,DG] A,[_CDA]A, [CDA]A,[CDA] | 
[V:1] [^f3^f'3][^c6^c'6]-[c3c'3] | 
[V:2] ^A,[^C^F^A]A, [CFA]A,[CFA] A,[CFA]A, [CFA]A,[CFA] | 
[V:1] [^f3^f'3][=d6=d'6]-[d3d'3] | 
[V:2] =B,[=D^F=B]B, [DFB]B,[DFB] B,[DFB]B, [DFB]B,[DFB] | 
[V:1] [g3g'3][=d6=d'6]-[d3d'3] | 
[V:2] =B,[=DG=B]B, [DGB]B,[DGB] B,[DGB]B, [DGB]B,[DGB] | 
[V:1] [g3g'3][=e6=e'6]-[e3e'3] | 
[V:2] C[=EGc]C [EGc]C[EGc] C[EGc]C [EGc]C[EGc] | 
[V:1] z2z g/b/d'/=e'/g'/g/z2z g/b/d'/e'/g'/g/ & x5g/ z/x5 g/ z/ | 
[V:2] D/E/G/B/d2<-[B2d2]=E/G/B/d/=e[E3G3B3d3] & x3[D3E3G3]x6 | 
[V:1] z2z g/b/d'/=e'/g'/g/z2z g/b/d'/=e'/g'/g/ & x5g/ z/x5 g/ z/ | 
[V:2] G/B/d/=e/-e Be2B/d/=e2[B3d3] | 
[V:1] z b/d'/=e'/g'/ z d'/=e'/g'/b'< z e'/g'/b'< z e'/g'/b'/ | 
[V:2] d/=e/-g2e/g/b2g/b/d'/ z/ z b/d'/=e'/ z/ z & xe2x9 | 
[V:1] z =e'/g'/b' z d'/e'/g' z b/d'/e' z g/b/d' | 
[V:2] d'/=e'/ z z b/d'/ z z g/b/ z z =e/g/ z z | 
[V:1] z =e/g/b z d/e/g z B/d/e z G/B/d | 
[V:2] d/=e/ z z B/d/ z z G/B/ z z =E/G/ z z | 
[V:1] z =E/G/B z D/E/G z B,/D/E z[K:clef=bass] G,/B,/D | 
[V:2] D/=E/ z z B,/D/ z z[K:clef=bass] G,/B,/ z z =E,/G,/ z z | 
[V:1] z =E,/G,/B, z D,/E,/G, z B,,/D,/E, z G,,/B,,/D, | 
[V:2] D,/=E,/ z z B,,/D,/ z z G,,/B,,/ z z =E,,/G,,/ z z | 
[V:1] [G,,/B,,/]=E,/[G,,/B,,/]E,/[G,,/B,,/]E,/ [G,,/B,,/]E,/[G,,/B,,/]E,/[G,,/B,,/]E,/ [G,,/B,,/]E,/[G,,/B,,/]E,/[G,,/B,,/]E,/ [G,,/B,,/]E,/[G,,/B,,/]E,/[G,,/B,,/]E,/ | 
[V:2] D,,2z[K:clef=treble] dddd2z[K:clef=bass] D,,D,,D,, | 
[V:1] [G,,/B,,/]=E,/[G,,/B,,/]E,/[G,,/B,,/]E,/ [G,,/B,,/]E,/[G,,/B,,/]E,/[G,,/B,,/]E,/ [G,,/B,,/]E,/[G,,/B,,/]E,/[G,,/B,,/]E,/ [G,,/B,,/]E,/[G,,/B,,/]E,/[G,,/B,,/]E,/ | 
[V:2] D,,2z[K:clef=treble] dddd2z[K:clef=bass] D,,D,,D,, | 
[V:1] [G,,/B,,/]=E,/[G,,/B,,/]E,/[G,,/B,,/]E,/ [G,,/B,,/]E,/[G,,/B,,/]E,/[G,,/B,,/]E,/ [G,,/B,,/]E,/[G,,/B,,/]E,/[G,,/B,,/]E,/ [G,,/B,,/]E,/[G,,/B,,/]E,/[G,,/B,,/]E,/ | 
[V:2] C,,2z[K:clef=treble] dddc2z[K:clef=bass] D,,D,,D,, | 
[V:1] [G,,/B,,/]=E,/[G,,/B,,/]E,/[G,,/B,,/]E,/ [G,,/B,,/]E,/[G,,/B,,/]E,/[G,,/B,,/]E,/ [G,,/B,,/]E,/[G,,/B,,/]E,/[G,,/B,,/]E,/ [G,,/B,,/]E,/[G,,/B,,/]E,/[G,,/B,,/]E,/ | 
[V:2] C,,2z[K:clef=treble] dddc2z[K:clef=bass] D,,D,,D,, | 
[V:1] [G,,2B,,2=E,2]zz2zz6 | 
[V:2] C,,C,,C,, C,,C,,C,, C,,C,,C,, C,,C,,C,, | 
[V:1] z4>z4z[C,2C2]-[C,/C/][A,,/A,/] | 
[V:2] C,,C,,C,, C,,C,,C,, C,,C,,C,, C,,C,,C,, | 
[V:1] [F,,6F,6]-[F,,3F,3][A,,2A,2]-[A,,/A,/][C,/C/] | 
[V:2] C,,C,,C,, C,,C,,C,, C,,C,,C,, C,,C,,C,, | 
[V:1] [F,3F3][K:clef=treble][A,2A2]-[A,/A/][C/c/][F3f3][F,3F3] | 
[V:2] C,,C,,C,, C,,C,,C,, C,,C,,C,, C,,C,,C,, | 
[V:1] c3-c2=d2<d2-d>c=e/d/ & [=E6G6][F6=B6] | 
[V:2] C,,C,,C,, C,,C,,C,, C,,C,,C,, C,,C,,C,, | 
[V:1] [=E2G2c2]zz2zz2z[K:clef=bass][D,2D2]-[D,/D/][B,,/B,/] | 
[V:2] C,,C,,C,, C,,C,,C,, C,,D,,D,, D,,D,,D,, | 
[V:1] [_G,,6_G,6]-[G,,3G,3][B,,2B,2]-[B,,/B,/][D,/D/][K:clef=treble] | 
[V:2] D,,D,,D,, D,,D,,D,, D,,D,,D,, D,,D,,D,, | 
[V:1] [_G,3_G3][B,2B2]-[B,/B/][D/d/][G3_g3][G,3G3] | 
[V:2] D,,D,,D,, D,,D,,D,, D,,D,,D,, D,,D,,D,, | 
[V:1] d3-d2e2<e2-e>df/e/ & [F6A6][_G6c6] | 
[V:2] D,,D,,D,, D,,D,,D,, D,,D,,D,, D,,D,,D,, | 
[V:1] d2zz2zz6 & [F2A2]x10 | 
[V:2] D,,[B,,,F,,][=B,,,F,,] [B,,,F,,][B,,,F,,][B,,,F,,] [B,,,F,,][B,,,F,,][B,,,F,,] [B,,,F,,][B,,,F,,][B,,,F,,] | 
[V:1] c3-c2=d2<-d2-d>c=e/d/ | 
[V:2] =E,,6F,,6 & =E,,C,,C,, C,,C,,C,, F,,C,,C,, C,,C,,C,, | 
[V:1] c2z[K:clef=bass] D,D,D,C,2zz2z[K:clef=treble] | 
[V:2] =E,,C,,C,, C,,C,,C,, C,,C,,C,, C,,C,,C,, | 
[V:1] =e3-e2f2< {/e}f2-f>eg/f/ | 
[V:2] G,,6A,,6 & G,,C,,C,, C,,C,,C,, A,,C,,C,, C,,C,,C,, | 
[V:1] =e2z[K:clef=bass] D,D,D,C,2z[K:clef=treble] [=eg][eg][eg] | 
[V:2] G,,C,,C,, C,,C,,C,, C,,C,,C,, C,,C,,C,, | 
[V:1] [g2b2]z[K:clef=bass] D,D,D,C,2z[K:clef=treble] [gb][gb][gb] | 
[V:2] C,,C,,C,, C,,C,,C,, C,,C,,C,, C,,C,,C,, | 
[V:1] =e'/b/g'/e'/b'/g'/ e'/g'/b/e'/g/b/ =e/g/B/e/G/B/ =E/G/B,/E/G,/B,/[K:clef=bass] | 
[V:2] C,,C,,C,, C,,C,,C,, C,,C,,C,, C,,C,,C,, | 
[V:1] =E,/G,/B,,/E,/G,,/B,,/ D,/B,,/E,/D,/G,/E,/ B, z z [D,A,D] z z | 
[V:2] C,,C,,C,, C,,C,,C,, [G,,,G,,]C,,C,, [F,,,F,,]C,,C,, | 
[V:1] [=E,6G,6C6]-!fermata![E,3G,3C3]C2-C/=A,/[K:clef=treble] | 
[V:2] [C,,6=E,,6]-[C,,3E,,3]C,,2-C,,/=A,,,/ | 
[V:1] F,[F,2=A,2C2F2][A,2C2F2=A2][C2F2A2c2][F2A2c2f2][A2c2f2=a2][cfac'] | 
[V:2] F,,, z [F,,,=A,,,C,,F,,]- [F,,,A,,,C,,F,,][F,,,2A,,,2C,,2F,,2][F,,,2A,,,2C,,2F,,2][F,,,A,,,C,,F,,]- [F,,,A,,,C,,F,,][F,,,2A,,,2C,,2F,,2] | 
[V:1] [f6=a6c'6f'6]-[f3a3c'3f'3]=A,2-A,/C/ | 
[V:2] [F,,,6=A,,,6C,,6F,,6]-[F,,,3A,,,3C,,3F,,3]A,,,2-A,,,/C,,/ | 
[V:1] F3=A2-A/c/f3F3 | 
[V:2] F,,3=A,,2-A,,/C,/F,3F,,3 | 
[V:1] [=E,G,C][G,2C2=E2][C2E2G2][E2G2c2][G2c2=e2][c2e2g2][egc'] | 
[V:2] z2[=E,,G,,C,]- [E,,G,,C,][E,,2G,,2C,2][E,,2G,,2C,2][E,,G,,C,]- [E,,G,,C,][E,,2G,,2C,2][K:clef=treble] | 
[V:1] x6d3-d>c=e/d/ & c3-c2=d=B6 | 
[V:2] [=E6G6][F6A6][K:clef=bass] | 
[V:1] [=E,G,C][G,2C2=E2][C2E2G2][E2G2c2][G2c2=e2][c2e2g2][egc'] | 
[V:2] z2[=E,,G,,C,]- [E,,G,,C,][E,,2G,,2C,2][E,,2G,,2C,2][E,,G,,C,]- [E,,G,,C,][E,,2G,,2C,2][K:clef=treble] | 
[V:1] c3-c2=d2<d2-d2c/d/ | 
[V:2] [=E6G6][F6A6][K:clef=bass] | 
[V:1] [G,B,=E][B,2E2G2][E2G2B2][G2B2=e2][B2e2g2][e2g2b2][gb=e'] | 
[V:2] z2[G,,-B,,-=E,] [G,,B,,E,][G,,2B,,2E,2][G,,2B,,2E,2][G,,B,,E,]- [G,,B,,E,][G,,2B,,2E,2][K:clef=treble] | 
[V:1] =e3-e2f2<f2-f2e/f/ | 
[V:2] [G6B6][A6c6][K:clef=bass] | 
[V:1] [=EG][d2=e2][e2g2][g2b2][b2d'2][d'2=e'2][e'g'] | 
[V:2] z2[B,,D,=E,G,]- [B,,D,E,G,][K:clef=treble][B,2D2=E2G2][B,2D2E2G2][B,DEG]- [B,DEG][B,2D2E2G2] | 
[V:1] g3-g2a2<a2-a>gb/a/ & =e6f6 | 
[V:2] [B6d6][=B6=d6] | 
[V:1] g3z2zz6 & =e3x9 | 
[V:2] Ccc ccc ccc ccc | 
[V:1] [f3a3]z2zz6 | 
[V:2] z cc [FA]cc ccc ccc | 
[V:1] [f12a12d'12] | 
[V:2] z cc [FA]cc [FA]cc [FA]cc | 
[V:1] [=e2g2c'2]zz2zz2z[e2g2]-[e/g/][e/g/] | 
[V:2] [=EG]CC CCC CCC CCC[K:clef=bass] | 
[V:1] [f2a2][=eg] z z [=EG] z z[K:clef=bass] [=E,G,] z z3/[K:clef=treble] [=e/g/] | 
[V:2] CCC CCC CCC [G,B,]CC | 
[V:1] [g2b2][fa] z z [FA] z z[K:clef=bass] [F,A,] z z3/[K:clef=treble] [f/a/] | 
[V:2] CCC CCC CCC [F,A,]CC | 
[V:1] [f12a12d'12] | 
[V:2] z CC [F,A,]CC [F,A,]CC [F,A,]CC | 
[V:1] [=e2g2c'2]zz2z[_E6^F6c6] | 
[V:2] z CC [=E,G,]CC z CC [_E,^F,]CC | 
[V:1] [=D2=F2=B2]zz2z[_D2F2_B2]zz2z | 
[V:2] z CC [=D,F,]CC z CC [_D,F,]CC | 
[V:1] [C3F3A3]z2zz6[K:clef=bass] | 
[V:2] z C,C, C,C,C, C,C,C, C,C,C, | 
[V:1] [B,,3C,3=E,3G,3]z2zz6 | 
[V:2] z C,,C,, C,,C,,C,, C,,C,,C,, C,,C,,C,, | 
[V:1] z4>z4z[=A,,2=A,2]-[A,,/A,/][C,/C/] | 
[V:2] F,,,[=A,,,C,,F,,]F,,, [A,,,C,,F,,]F,,,[A,,,C,,F,,] F,,,[A,,,C,,F,,]F,,, [A,,,C,,F,,]F,,,[A,,,C,,F,,] | 
[V:1] [F,3F3][=A,2=A2]-[A,/A/][F,/F/][=E,3=E3][G,2G2]-[G,/G/][E,/E/] | 
[V:2] F,,,[=A,,,C,,F,,]F,,, [A,,,C,,F,,]F,,,[A,,,C,,F,,] G,,,[B,,,=E,,G,,]G,,, [B,,,E,,G,,]G,,,[B,,,E,,G,,] | 
[V:1] [F,3F3][C,4C4]>[=D,4=D4]-[D,/D/][B,,/B,/] | 
[V:2] =A,,,[C,,F,,=A,,]A,,, [C,,F,,A,,]A,,,[C,,F,,A,,] A,,,[C,,F,,A,,]A,,, F,,B,,,F,, | 
[V:1] [=A,,3=A,3][C,2C2-][C,/C/][A,,/A,/][G,,3G,3][C,2C2]-[C,/C/][B,,/B,/][K:clef=treble] | 
[V:2] C,,F,,C,, F,,C,,F,, C,,=E,,C,, E,,C,,E,, | 
[V:1] =A,3C3-C3[A,2=A2]-[A,/A/][C/c/] | 
[V:2] F,,[=A,,C,F,]F,, [A,,C,F,]F,,[A,,C,F,] F,,[A,,C,F,]F,, [A,,C,F,]F,,[A,,C,F,] | 
[V:1] [F3f3][=A2=a2]-[A/a/][F/f/][=E3=e3][G2g2-][G/g/][E/e/] | 
[V:2] F,,[=A,,C,F,]F,, [A,,C,F,]F,,[A,,C,F,] G,,[B,,C,G,]G,, [B,,C,G,]G,,[B,,C,G,] | 
[V:1] [F3f3][C6c6]-[C3c3] | 
[V:2] [=A,,12C,12F,12=A,12] | 
[V:1] [D3d3][B,6B6]-[B,3B3] | 
[V:2] F,3_G,6-G,3 & [B,,12D,12] | 
[V:1] A6-A3G2F | 
[V:2] [C,12F,12A,12] | 
[V:1] G12 | 
[V:2] [C,12=E,12B,12] | 
[V:1] {/d}c12{/=Bc} | 
[V:2] z12 | 
[V:1] {/d'}c'12{/=bc'} | 
[V:2] z12 | 
[V:1] d'c'_b ag_g f=e_e dcB | 
[V:2] z12 | 
[V:1] A=G_G F=E_E DCB,[K:clef=bass] A,=G,_G, | 
[V:2] z12 | 
[V:1] F,=E,_E, D,C,B,, A,,=G,,_G,,z2z | 
[V:2] z4>z4z F,,=E,,_E,, | 
[V:1] z12 | 
[V:2] D,,C,,B,,, A,,,=G,,,A,,, B,,,C,,=B,,, C,,B,,,C,, | 
[V:1] F,/C,/A,,/C,/F,/C,/ A,/C,/G,/C,/F,/C,/ F,/C,/A,,/C,/F,/C,/ A,/C,/G,/C,/F,/C,/ | 
[V:2] F,,,/C,,/F,,/C,,/F,,,/C,,/ F,,,/C,,/F,,,/C,,/F,,,/C,,/ F,,,/C,,/F,,/C,,/F,,,/C,,/ F,,,/C,,/F,,,/C,,/F,,,/C,,/ | 
[V:1] D/A,/F,/A,/D/A,/ F/A,/E/A,/D/A,/ D/A,/F,/A,/D/A,/ F/A,/E/A,/D/A,/[K:clef=treble] | 
[V:2] F,,,/D,,/F,,/D,,/F,,,/D,,/ F,,,/D,,/F,,,/D,,/F,,,/D,,/ F,,,/D,,/F,,/D,,/F,,,/D,,/ F,,,/D,,/F,,,/.D,,/F,,,/D,,/ | 
[V:1] B/d/B/d/B/d/ B/d/B/d/B/d/ B/d/B/d/B/d/ B/d/G/B/=E/G/ | 
[V:2] [_G,,,6_G,,6]-[G,,,2G,,2]>.[=G,,,2=G,,2]B,,,.D,, | 
[V:1] D/=E/B,/D/G,/B,/ F,/G,/B,/G,/F,/G,/ z/ F,/B,/G,/F,/B,/ z/ =E,/B,/G,/E,/B,/ | 
[V:2] .=E,,.G,,.B,, .D,.D,.D,2<D,2C,3 | 
[V:1] F/C/A,/C/F/C/ A/C/G/C/F/C/ F/C/A,/C/F/C/ A/C/G/C/F/C/ | 
[V:2] F,,/C,/F,/C,/F,,/C,/ F,,/C,/F,,/C,/F,,/C,/ F,,/C,/F,/C,/F,,/C,/ F,,/C,/F,,/C,/F,,/C,/ | 
[V:1] d/A/F/A/d/A/ f/A/e/A/d/A/ d/A/F/A/d/A/ f/A/e/A/d/A/ | 
[V:2] F,,/D,/F,/D,/F,,/D,/ F,,/D,/F,,/D,/F,,/D,/ F,,/D,/F,/D,/F,,/D,/ F,,/D,/F,,/D,/F,,/D,/ | 
[V:1] b/d'/b/d'/b/d'/ b/d'/b/d'/b/d'/ b/d'/b/d'/b/d'/ b/d'/b/d'/b/d'/ | 
[V:2] [_G,,6_G,6]-[G,,2G,2]>.[=G,,2=G,2].[B,,B,].[D,D] | 
[V:1] b/d'/g/b/f/g/ f/g/b/g/f/g/ z/ f/b/g/f/b/ z/ =e/b/g/e/b/ | 
[V:2] .[=E,=E][K:clef=treble] .[G,G].[B,B] .[Dd].[Dd].[D2d2]<!sfz![D2d2][C3c3] | 
[V:1] z/ d/b/g/d/g/ z/ c/b/g/c/g/ z/ f/b/g/f/b/ z/ =e/b/g/e/b/ | 
[V:2] F3=E3d3c3 | 
[V:1] z z =b/=d'/ f'/d'/b/a'/g'/f'/ =e'/g'/f'/e'/_d'/c'/ _b/d'/c'/=b/a/g/ | 
[V:2] =B/=d/f/a/- a2<-a2c/=e/[e2g2]-[e3g3] & x3[B3d3f3]x6 | 
[V:1] z/ f/a/c'/f'/f< z f'/f/f'< z f'/f/f'< z =e'/=e/e'/ | 
[V:2] [F3A3][B3d3][A3c3][G3B3c3] | 
[V:1] z/ f/a/c'/f'/f< z f/F/f< z f/F/f< z =e/=E/e/ | 
[V:2] [F3A3][K:clef=bass][B,3D3][A,3C3][G,3B,3C3] | 
[V:1] z/ f/a/c'/f'/f< z f'/f/f'< z f'/f/f'< z =e'/=e/e'/ | 
[V:2] [F,3A,3][B,,3D,3][A,,3C,3][G,,3B,,3C,3] | 
[V:1] f'/c'/a/c'/f'/c'/ a/c'/f'/c'/a/c'/ f'/c'/a/c'/f'/c'/ f'/c'/f'/c'/f'/c'/ | 
[V:2] F,,6C,,3A,,,3 | 
[V:1] f'/c'/a/c'/f'/c'/ a/c'/f'/c'/a/c'/ f'/c'/a/c'/f'/c'/ a/c'/f'/c'/a/c'/ | 
[V:2] F,,,6-F,,,3A,,,2-A,,,/C,,/ | 
[V:1] f'/c'/a/c'/f'/c'/ a/c'/f'/c'/a/c'/ f'/c'/a/c'/f'/c'/ a/c'/f'/c'/a/c'/ | 
[V:2] F,,3A,,2-A,,/C,/F,3F,,3 | 
[V:1] e'/c'/a/c'/e'/c'/ a/c'/e'/c'/a/c'/ e'/c'/a/c'/e'/c'/ a/c'/e'/c'/a/c'/ | 
[V:2] _G,,6-G,,3C,2-C,/E,/ | 
[V:1] e'/c'/a/c'/e'/c'/ a/c'/e'/c'/a/c'/ e'/c'/a/c'/e'/c'/ a/c'/e'/c'/a/c'/ | 
[V:2] _G,3C2-C/E/_G3G,3 | 
[V:1] f'/d'/a/d'/f'/d'/ a/d'/f'/d'/a/d'/ f'/d'/a/d'/f'/d'/ a/d'/f'/d'/a/d'/ | 
[V:2] F,3A,2-A,/D/F3F,3 | 
[V:1] _g'/c'/a/c'/g'/c'/ a/c'/g'/c'/a/c'/ g'/c'/a/c'/g'/c'/ g'/e'/a/e'/g'/e'/ | 
[V:2] E,2-E,/_G,/A,2-A,/C/[K:clef=treble]E2-E/_G/A2-A/c/ | 
[V:1] f'2zz2zz2zf2-f/a/ | 
[V:2] D[FAd]D [FAd]D[FAd] D[FAd]D [FAd]D[FAd] | 
[V:1] d'3f'2-f'/d'/c'3e'2-e'/c'/ | 
[V:2] D[FAd]D [FAd]D[FAd] E[_GAe]E [GAe]E[GAe] | 
[V:1] d'3a4>f4-f/a/ | 
[V:2] F[Adf]F [Adf]F[Adf] F[Adf]F [Ad]F[Ad] | 
[V:1] d'3f'2-f'/d'/c'3e'2-e'/c'/ | 
[V:2] F[Adf]F [Adf]F[Adf] ^F[=Ace]F [Ace]F[Ace] | 
[V:1] =b3!sfz!=d'4>d'4-d'/b/ | 
[V:2] =F[_A=B=d]F [ABd]F[ABd] F[ABd]F [ABd]F[ABd] | 
[V:1] c'3!sfz!=e'4>[g4g'4]-[g/g'/][f/f'/] | 
[V:2] =E[Gc=e]E [Gce]E[Gce] E[Gce]E [Gce]E[Gce] | 
[V:1] [=e3=e'3]!sfz![g3g'3]-[g3g'3][g2g'2]-[g/g'/][e/e'/] | 
[V:2] _B,[D=EG]B, [DEG]B,[DEG] B,[DEG]B, [DEG]B,[DEG] | 
[V:1] [f3f'3]!sfz![a3a'3]-[a3a'3][a2a'2]-[a/a'/][f/f'/] | 
[V:2] A,[CFA]A, [CFA]A,[CFA] A,[CFA]A, [CFA]A,[CFA] | 
[V:1] z/ D/B,/_G/ z z/ G/D/B/ z z/ B/G/d/ z z/ d/B/_g/ z | 
[V:2] [K:clef=bass][B,,,B,,] z D,/_G,/ B, z G,/B,/ D z[K:clef=treble] B,/D/ _G z D/G/ | 
[V:1] z/ _g/d/b/ z z/ b/g/d'/ z z/ d'/b/_g'/ z z g'/d'/b' | 
[V:2] B z _G/B/ d z B/d/ _g z d/g/ b z z[K:clef=bass] | 
[V:1] z/ E/C/=A/ z z/ A/E/c/ z z/ c/A/e/ z z/ e/c/=a/ z | 
[V:2] [C,,C,] z E,/=A,/ C z[K:clef=treble] =A,/C/ E z C/E/ =A z E/A/ | 
[V:1] z/ =a/e/c'/ z z/ c'/a/e'/ z z/ e'/c'/=a'/ z z a'/e'/c'' | 
[V:2] c z =A/c/ e z c/e/ =a z e/a/ c' z z[K:clef=bass] | 
[V:1] z/ F/D/B/ z z B/F/d z/ G/=E/c/ z z c/G/=e | 
[V:2] [D,,D,] z F,/B,/ D z z [=E,,=E,] z G,/C/ =E z z | 
[V:1] z/ A/F/d/ z z d/A/f z/ B/G/=e/ z z e/B/g | 
[V:2] [F,,F,] z A,/D/ F z z [G,,G,] z B,/=E/ G z z | 
[V:1] z/ c/A/f/ z z/ d/B/g/ z z/ e/c/=a/ z z/ f/d/b/ z | 
[V:2] A,, z A,/C/ B,, z B,/D/ C, z C/E/ D, z D/F/ | 
[V:1] z/ g/=e/c'/ z z/ a/f/d'/ z z/ b/g/=e'/ z z/ c'/a/f'/ z | 
[V:2] =E, z[K:clef=treble] =E/G/ F, z F/A/ G, z G/B/ A, z A/c/ | 
[V:1] z/ d'/b/g'/ z z/ _e'/c'/=a'/ z z/ f'/d'/b'/ z z/ f'/d'/b'/ z | 
[V:2] B, z B/d/ C z c/e/ D z d/f/ D z d/f/ | 
[V:1] z z/ f'/d'/b'/ f'/d'/b/f/d/b/ f/d/B/F/D/B/[K:clef=bass] F/D/B,/F,/D,/B,/ | 
[V:2] D/d/f/ z/ zz2zz6[K:clef=bass] | 
[V:1] F,/D,/B,,/D,/F,/B,/[K:clef=treble] D/F/B/d/f/d/ B/d/f/b/d'/b/ f'/d'/b'/f'/d'/b/ | 
[V:2] z12[K:clef=treble] | 
[V:1] z z/ a'/f'/=b'/ a'/f'/=d'/=b/a/f/ b/a/f/=d/=B/A/ d/B/A/F/=D/=B,/ | 
[V:2] =D/=d/f/ z/ zz2zz6[K:clef=bass] | 
[V:1] A/F/=D/=B,/A,/F,/ =D,/=B,,/D,/F,/ A,/_B,/ D/F/A/=B/=d/f/ a/=b/=d'/f'/a'/=b'/ | 
[V:2] z12 | 
[V:1] z z/ a'/f'/c''/ a'/f'/c'/a/f/c'/ a/f/c/A/F/c/ A/F/C/A,/F,/C/ | 
[V:2] C,, z zz2zz6 | 
[V:1] z6F/A/c/f/a/c'/ f'/a'/c''/a'/f'/c'/ | 
[V:2] A,/F,/ C,/A,,/F,,/C,,/ F,,/A,,/C,/ F,/A,/C/z6 | 
[V:1] z z/ g'/=e'/b'/ g'/e'/c'/b/g/=e/ c/B/G/=E/C/B,/ G,/=E,/C,/ B,,/G,,/=E,,/ | 
[V:2] C,,/C,/=E,/G,/B,z2zz6 | 
[V:1] C,,/=E,,/G,,/B,,/ C,/=E,/ G,/B,/C/=E/G/B/ c/=e/g/e/c/e/ g/e/b/g/e/g/ | 
[V:2] z12 | 
[V:1] b2zz2zz2z [=eg][eg][eg] | 
[V:2] z2z D,D,D,C,2zz2z | 
[V:1] [g2b2]zz2zz2z [=EG][EG][EG] | 
[V:2] z2z D,D,D,C,2zz2z | 
[V:1] [G2B2]zz2zz6 | 
[V:2] z2z D,,D,,D,,2<C,,2D,,D,,D,, | 
[V:1] z2z .[GB=e].[GBe].[GBe]!fermata![G3B3e3] | 
[V:2] C,,2>.D,,2.D,,.D,,C,,3 | 
[V:1] [=egbc'=e'][egbc'e'][egbc'e'] [I:setbarnb 239]| 
[V:2] [C,,C,][C,,C,][C,,C,] | 
[V:1] [f2a2c'2f'2]zz2zz2zA2-A/c/ | 
[V:2] [F,,,F,,][K:clef=treble] [CF]A, [CF]A,[CF] A,[CF]A, [CF]A,[CF] | 
[V:1] f3a2-a/f/=e3g2-g/e/ | 
[V:2] A,[CF]A, [CF]A,[CF] B,[CG]B, [CG]B,[CG] | 
[V:1] f3c4>[A4a4]-[A/a/][c/c'/] | 
[V:2] A,[CF]A, [CF]A,[CF] A,[CF]A, [CF]A,[CF] | 
[V:1] [f3f'3][a2a'2]-[a/a'/][f/f'/][=e3=e'3][g2g'2]-[g/g'/][e/e'/] | 
[V:2] A,[CFA]A, [CFA]A,[CFA] B,[C=EG]B, [CEG]B,[CEG] | 
[V:1] !sfz![_g3_g'3][c3c'3]-[c3c'3][e2e'2]-[e/e'/][c/c'/] | 
[V:2] =A,[CE_G]A, [CEG]A,[CEG] A,[CEG]A, [CEG]A,[CEG] | 
[V:1] !sfz![f3f'3][B3b3]-[B3b3][d2d'2]-[d/d'/][B/b/] | 
[V:2] =A,[CEF]A, [DF]B,[DF] B,[DF]B, [=E=G]B,[EG][K:clef=bass] | 
[V:1] [A3a3][c2c'2]-[c/c'/][A/a/][G3g3][g2g'2]-[g/g'/][=e/=e'/] | 
[V:2] C,[F,_A,C]C, [F,A,C]C,[F,A,C] B,,[C,=E,G,]B,, [C,E,G,]B,,[C,E,G,] | 
[V:1] !sfz![_g3_g'3][c3c'3]-[c3c'3][e2e'2]-[e/e'/][c/c'/] | 
[V:2] =A,,[E,_G,=A,]A,, [E,G,A,]A,,[E,G,A,] A,,[E,G,A,]A,, [E,G,A,]A,,[E,G,A,] | 
[V:1] !sfz![f3f'3][B3b3]-[B3b3][d2d'2]-[d/d'/][B/b/] | 
[V:2] =A,,[E,F,=A,]A,, [D,F,B,]B,,[D,F,B,] B,,[D,F,B,]B,, [=E,=G,B,]B,,[E,G,B,] | 
[V:1] [A3a3][c2c'2]-[c/c'/][A/a/][G3g3][c2c'2][cc'] | 
[V:2] C,[F,_A,C]C, [F,A,C]C,[F,A,C] C,[=E,G,C]C, [E,G,C]C,[E,G,C] | 
[V:1] [cc'] [CFAc][C2F2A2c2]<!sfz![C2F2A2c2]z [C=EGc][CEGc]!sfz![C3G3B3c3] | 
[V:2] [F,,2A,,2C,2F,2]z z [F,A,][F,A,][=E,2G,2]z z [G,B,][G,B,] | 
[V:1] z [CFAc][C2F2A2c2]<!sfz![C2F2A2c2]z [C=EGc][CEGc]!sfz![C3G3B3c3] | 
[V:2] [F,2A,2]z z [F,A,][F,A,][=E,2G,2]z z [G,B,][G,B,] | 
[V:1] z [CFAc] z [DFGd] z [DFGd] z [CFAc] z [C=EGc] z [CEGc] | 
[V:2] [F,A,] z [F,A,] z [B,,F,G,] z [C,F,A,] z [C,F,A,] z [C,=E,G,] z | 
[V:1] [CFAc][K:clef=bass] [C,F,A,C][C,2F,2A,2C2]<!sfz![C,2F,2A,2C2]z [C,=E,G,C][C,E,G,C]!sfz![C,3G,3B,3C3] | 
[V:2] [F,,A,,C,F,] z z z [F,,A,,][F,,A,,][=E,,2G,,2]z z [G,,B,,][G,,B,,] | 
[V:1] z [C,F,A,C][C,2F,2A,2C2]<!sfz![C,2F,2A,2C2]z [C,=E,G,C][C,E,G,C]!sfz![C,3G,3B,3C3] | 
[V:2] [F,,2A,,2]z z [F,,A,,][F,,A,,][=E,,2G,,2]z z [G,,B,,][G,,B,,] | 
[V:1] z [C,F,A,C] z [D,F,G,D] z [D,F,G,D] z [C,F,A,C] z [C,=E,G,C] z [C,E,G,C][K:clef=treble] | 
[V:2] [F,,A,,] z [F,,A,,] z [B,,,F,,G,,] z [C,,F,,A,,] z [C,,F,,A,,] z [B,,,=E,,G,,] z | 
[V:1] z [CFAc] z [DFGd] z [DFGd] z [CFAc] z [C=EGc] z [CEGc] | 
[V:2] [A,,,C,,F,,A,,] z [A,,,C,,F,,A,,] z [B,,,F,,G,,B,,] z [C,,F,,A,,C,] z [C,,F,,A,,C,] z [B,,,=E,,G,,B,,] z | 
[V:1] z [cfac'] z [dfgd'] z [dfgd'] z [cfac'] z [c=egc'] z [cegc'] | 
[V:2] [A,,,C,,F,,A,,] z [A,,,C,,F,,A,,] z [B,,,F,,G,,B,,] z [C,,F,,A,,C,] z [C,,F,,A,,C,] z [C,,=E,,G,,C,] z | 
[V:1] C/A,/C/A,/C/A,/ C/A,/C/A,/C/A,/ C/A,/C/A,/C/A,/ C/A,/C/A,/C/A,/ | 
[V:2] [F,,,2F,,2]z[K:clef=treble]A2-A/c/f3a2-a/c'/ | 
[V:1] C/A,/C/A,/C/A,/ C/A,/C/A,/C/A,/ C/A,/C/A,/C/A,/ C/A,/C/A,/C/A,/ | 
[V:2] f'3c'2-c'/a/f3c2-c/A/ | 
[V:1] C/A,/C/A,/C/A,/ A/F/A/F/A/F/ c/A/c/A/c/A/ c/A/c/A/c/A/ | 
[V:2] F3[K:clef=bass]C2-C/A,/F,3C,2-C,/A,,/ | 
[V:1] c/A/c/A/c/A/ c/A/c/A/c/A/ c/A/c/A/c/A/ c/A/c/A/c/A/ | 
[V:2] F,,3C,,2-C,,/A,,,/F,,,3F,,,3 | 
[V:1] c/A/c/A/c/A/ c/A/c/A/c/A/ c/A/c/A/c/A/ c/A/c/A/c/A/ | 
[V:2] F,,,6F,,,6 | 
[V:1] !fermata![A12c12] |]  
[V:2] !fermata!F,,,12 |]  


